src/img/icon-fb.svg

<?xml version="1.0" encoding="UTF-8" standalone="no"?>
<svg width="36px" height="36px" viewBox="0 0 36 36" version="1.1" xmlns="http://www.w3.org/2000/svg" xmlns:xlink="http://www.w3.org/1999/xlink">
    <!-- Generator: sketchtool 3.7 (28169) - http://www.bohemiancoding.com/sketch -->
    <title>0081ED42-8E98-484F-9E69-371D5096BD22</title>
    <desc>Created with sketchtool.</desc>
    <defs></defs>
    <g id="Page-1" stroke="none" stroke-width="1" fill="none" fill-rule="evenodd">
        <g id="desktop" transform="translate(-1175.000000, -8800.000000)" fill="#FFFFFF">
            <g id="footer" transform="translate(0.000000, 8400.000000)">
                <g id="Group-10" transform="translate(963.000000, 388.000000)">
                    <g id="fb_icon" transform="translate(200.000000, 0.000000)">
                        <g id="icon_fb" transform="translate(12.000000, 12.000000)">
                            <path d="M20.4064,21.3810526 L25.104,21.3810526 L25.8096,15.7086316 L20.4064,15.7086316 L20.4064,12.0724211 C20.4064,10.4252632 20.832,9.30189474 23.1024,9.30189474 L26,9.30357895 L26,4.21052632 C25.4992,4.14147368 23.7792,4 21.7776,4 C17.6016,4 14.744,6.63915789 14.744,11.5098947 L14.744,15.7086316 L10,15.7086316 L10,21.3810526 L14.7424,21.3810526 L14.7424,36 L20.4064,36 L20.4064,21.3810526 Z" id="Shape-Copy-6"></path>
                        </g>
                    </g>
                </g>
            </g>
        </g>
    </g>
</svg>

<svg width="36" height="36" viewBox="0 0 36 36" xmlns="http://www.w3.org/2000/svg"><title>0081ED42-8E98-484F-9E69-371D5096BD22</title><path d="M20.406 21.381h4.698l.706-5.672h-5.404v-3.637c0-1.647.426-2.77 2.696-2.77L26 9.304V4.21C25.5 4.14 23.78 4 21.778 4c-4.176 0-7.034 2.64-7.034 7.51v4.199H10v5.672h4.742V36h5.664V21.381z" fill="#FFF" fill-rule="evenodd"/></svg>
